proprietary/assets/icons/lichaam/hand-met-pen-.svg

<svg enable-background="new 0 0 64 64" viewBox="0 0 64 64" xmlns="http://www.w3.org/2000/svg"><path d="m0 0h64v64h-64z" fill="none"/><path d="m11.1 41-1.3 1.8c-2 2.8-3.3 7.1-1.3 8.5s5.7-1 7.7-3.8l2.4-3.3c-.7-.2-1.3-.3-2-.5-2.3-.6-4.2-1.5-5.5-2.7zm31.1-35.7c-1.8-1.3-3.6-1.9-4.9-.1l-20.4 27.8h5.2c0-.1-.1-.3.2-.4s4.1-.8 5.6-1.1l15.8-21.5c1.3-1.8.2-3.4-1.5-4.7z"/><path d="m15.6 31h.3l11.4-15.6c-4 .4-8 1.1-9.4 1.9-3 1.6-8.9 11.2-12.1 18.1-1.1 2.3-1.1 4.8 1 6.3.3.2.7.4 1 .5l.3-.6 1.6-2.2c-.7-1.1-1-2.4-.9-3.6.3-1.8 1.4-4.8 6.8-4.8zm25.7-14.4-7.8 10.6c1.1.5 1.8 1.5 1.8 2.8 0 1.7-1.3 3-3 3h-16.7c-3.1 0-4.5 1.1-4.8 3-.1.8.1 1.8.8 2.7.9 1.2 2.6 2.4 5.4 3.2 6.8 1.8 14.8 1.7 18.5 4.1.1 0 3.7 2.3 7.6 2.9 7 1 17.4-2 17.4-2v-19.5c.1 0-12.7-7.5-19.2-10.8z"/></svg>

<?xml version="1.0" encoding="utf-8"?>
<!-- Generator: Adobe Illustrator 24.1.3, SVG Export Plug-In . SVG Version: 6.00 Build 0)  -->
<svg version="1.1" xmlns="http://www.w3.org/2000/svg" xmlns:xlink="http://www.w3.org/1999/xlink" x="0px" y="0px"
	 viewBox="0 0 64 64" style="enable-background:new 0 0 64 64;" xml:space="preserve">
<style type="text/css">
	.st0{fill:none;}
</style>
<g id="Box">
	<rect class="st0" width="64" height="64"/>
</g>
<g id="Icon">
	<path d="M11.1,41l-1.3,1.8c-2,2.8-3.3,7.1-1.3,8.5c2,1.4,5.7-1,7.7-3.8l2.4-3.3c-0.7-0.2-1.3-0.3-2-0.5
		C14.3,43.1,12.4,42.2,11.1,41z M42.2,5.3c-1.8-1.3-3.6-1.9-4.9-0.1L16.9,33h5.2c0-0.1-0.1-0.3,0.2-0.4c0.3-0.1,4.1-0.8,5.6-1.1
		L43.7,10C45,8.2,43.9,6.6,42.2,5.3z"/>
	<path d="M15.6,31h0.3l11.4-15.6c-4,0.4-8,1.1-9.4,1.9c-3,1.6-8.9,11.2-12.1,18.1c-1.1,2.3-1.1,4.8,1,6.3c0.3,0.2,0.7,0.4,1,0.5
		C7.9,42,8,41.8,8.1,41.6l1.6-2.2c-0.7-1.1-1-2.4-0.9-3.6C9.1,34,10.2,31,15.6,31z M41.3,16.6l-7.8,10.6c1.1,0.5,1.8,1.5,1.8,2.8v0
		c0,1.7-1.3,3-3,3H15.6c-3.1,0-4.5,1.1-4.8,3c-0.1,0.8,0.1,1.8,0.8,2.7c0.9,1.2,2.6,2.4,5.4,3.2c6.8,1.8,14.8,1.7,18.5,4.1
		c0.1,0,3.7,2.3,7.6,2.9c7,1,17.4-2,17.4-2V27.4C60.6,27.4,47.8,19.9,41.3,16.6z"/>
</g>
</svg>
